public/logo.svg

<svg width="200" height="200" viewBox="0 0 200 200" fill="none" xmlns="http://www.w3.org/2000/svg">
<rect width="200" height="200"/>
<path d="M146.62 83.1133C140.049 83.1133 134.231 81.255 129.168 77.5383C124.105 73.8216 120.496 69.0546 118.341 63.2371H81.1742C79.666 67.3309 77.3228 70.9668 74.1448 74.1448C70.9668 77.3228 67.3309 79.666 63.2371 81.1742V118.341C69.0546 120.496 73.8216 124.132 77.5383 129.249C81.255 134.366 83.1133 140.156 83.1133 146.62C83.1133 155.023 80.1701 162.133 74.2838 167.951C68.3985 173.768 61.3228 176.677 53.0567 176.677C44.6537 176.677 37.5435 173.768 31.7261 167.951C25.9087 162.133 23 155.023 23 146.62C23 140.156 24.8583 134.366 28.575 129.249C32.2917 124.132 37.0588 120.496 42.8762 118.341V81.1742C37.0588 79.0196 32.2917 75.4106 28.575 70.3473C24.8583 65.284 23 59.4666 23 52.8951C23 44.5999 25.9087 37.5435 31.7261 31.7261C37.5435 25.9087 44.5999 23 52.8951 23C59.4666 23 65.284 24.8583 70.3473 28.575C75.4106 32.2917 79.0196 37.0588 81.1742 42.8762H118.341C120.496 37.0588 124.105 32.2917 129.168 28.575C134.231 24.8583 140.049 23 146.62 23C155.023 23 162.133 25.9087 167.951 31.7261C173.768 37.5435 176.677 44.6537 176.677 53.0567C176.677 61.4596 173.768 68.5698 167.951 74.3872C162.133 80.2046 155.023 83.1133 146.62 83.1133ZM52.8951 156.316C55.6056 156.316 57.9261 155.362 59.8566 153.456C61.7871 151.549 62.7524 149.324 62.7524 146.782C62.7524 144.115 61.7919 141.833 59.8711 139.933C57.9492 138.035 55.6395 137.086 52.9419 137.086C50.3252 137.086 48.0742 138.035 46.1889 139.933C44.3036 141.833 43.361 144.115 43.361 146.782C43.361 149.367 44.3144 151.603 46.2212 153.488C48.128 155.373 50.3526 156.316 52.8951 156.316ZM52.8951 62.7524C55.6056 62.7524 57.9261 61.7871 59.8566 59.8566C61.7871 57.9261 62.7524 55.6056 62.7524 52.8951C62.7524 50.2729 61.7919 48.0284 59.8711 46.1614C57.9492 44.2944 55.6395 43.361 52.9419 43.361C50.3252 43.361 48.0742 44.302 46.1889 46.184C44.3036 48.0661 43.361 50.3284 43.361 52.971C43.361 55.6136 44.3144 57.9045 46.2212 59.8437C48.128 61.7828 50.3526 62.7524 52.8951 62.7524ZM147.024 177C138.675 177 131.565 174.118 125.694 168.355C119.822 162.591 116.887 155.508 116.887 147.105C116.887 138.702 119.822 131.565 125.694 125.694C131.565 119.822 138.675 116.887 147.024 116.887C155.373 116.887 162.456 119.822 168.274 125.694C174.091 131.565 177 138.702 177 147.105C177 155.508 174.091 162.591 168.274 168.355C162.456 174.118 155.373 177 147.024 177ZM146.782 62.7524C149.404 62.7524 151.648 61.7871 153.515 59.8566C155.382 57.9261 156.316 55.6056 156.316 52.8951C156.316 50.2729 155.375 48.0284 153.493 46.1614C151.611 44.2944 149.348 43.361 146.706 43.361C144.063 43.361 141.772 44.302 139.833 46.184C137.894 48.0661 136.924 50.3284 136.924 52.971C136.924 55.6136 137.89 57.9045 139.82 59.8437C141.751 61.7828 144.071 62.7524 146.782 62.7524Z" fill="#1F1F1F"/>
</svg>

<svg xmlns="http://www.w3.org/2000/svg" width="200" height="200" fill="none" xmlns:v="https://vecta.io/nano"><path d="M146.62 83.113c-6.571 0-12.389-1.858-17.452-5.575s-8.672-8.484-10.827-14.301H81.174c-1.508 4.094-3.851 7.73-7.029 10.908s-6.814 5.521-10.908 7.029v37.167c5.817 2.155 10.585 5.791 14.301 10.908s5.575 10.907 5.575 17.371c0 8.403-2.943 15.513-8.829 21.331s-12.961 8.726-21.227 8.726c-8.403 0-15.513-2.909-21.331-8.726S23 155.023 23 146.62c0-6.464 1.858-12.254 5.575-17.371s8.484-8.753 14.301-10.908V81.174c-5.817-2.155-10.584-5.764-14.301-10.827S23 59.467 23 52.895c0-8.295 2.909-15.352 8.726-21.169S44.6 23 52.895 23c6.572 0 12.389 1.858 17.452 5.575s8.672 8.484 10.827 14.301h37.167c2.155-5.817 5.764-10.584 10.827-14.301S140.049 23 146.62 23c8.403 0 15.513 2.909 21.331 8.726s8.726 12.928 8.726 21.331-2.909 15.513-8.726 21.331-12.928 8.726-21.331 8.726zm-93.725 73.203a9.55 9.55 0 0 0 6.962-2.86c1.931-1.907 2.896-4.132 2.896-6.674 0-2.667-.961-4.949-2.881-6.849s-4.232-2.847-6.929-2.847c-2.617 0-4.868.949-6.753 2.847s-2.828 4.182-2.828 6.849c0 2.585.953 4.821 2.86 6.706s4.131 2.828 6.674 2.828zm0-93.564c2.711 0 5.031-.965 6.962-2.896s2.896-4.251 2.896-6.962c0-2.622-.961-4.867-2.881-6.734s-4.232-2.8-6.929-2.8c-2.617 0-4.868.941-6.753 2.823s-2.828 4.144-2.828 6.787.953 4.934 2.86 6.873 4.131 2.909 6.674 2.909zM147.024 177c-8.349 0-15.459-2.882-21.33-8.645s-8.807-12.847-8.807-21.25 2.935-15.54 8.807-21.411 12.981-8.807 21.33-8.807 15.432 2.935 21.25 8.807S177 138.702 177 147.105s-2.909 15.486-8.726 21.25S155.373 177 147.024 177zm-.242-114.248c2.622 0 4.866-.965 6.733-2.896s2.801-4.251 2.801-6.962c0-2.622-.941-4.867-2.823-6.734s-4.145-2.8-6.787-2.8-4.934.941-6.873 2.823-2.909 4.144-2.909 6.787.966 4.934 2.896 6.873 4.251 2.909 6.962 2.909z" fill="#1f1f1f"/></svg>
